tools/download-figma-icons/icons/action/company.svg

<svg width="24" height="24" viewBox="0 0 24 24" fill="none" xmlns="http://www.w3.org/2000/svg">
<path fill-rule="evenodd" clip-rule="evenodd" d="M6 0H18C18.5523 0 19 0.447715 19 1V5H23C23.5523 5 24 5.44772 24 6V23C24 23.5523 23.5523 24 23 24H18H6H1C0.447715 24 0 23.5523 0 23V6C0 5.44772 0.447715 5 1 5H5V1C5 0.447715 5.44772 0 6 0ZM19 22V7H22V22H19ZM17 2V6V22H7V6V2H17ZM5 7V22H2V7H5ZM15 6C15 5.44772 14.5523 5 14 5H10L9.88338 5.00673C9.38604 5.06449 9 5.48716 9 6C9 6.55228 9.44771 7 10 7H14L14.1166 6.99327C14.614 6.93551 15 6.51284 15 6ZM14 10C14.5523 10 15 10.4477 15 11C15 11.5128 14.614 11.9355 14.1166 11.9933L14 12H10C9.44771 12 9 11.5523 9 11C9 10.4872 9.38604 10.0645 9.88338 10.0067L10 10H14ZM15 16C15 15.4477 14.5523 15 14 15H10L9.88338 15.0067C9.38604 15.0645 9 15.4872 9 16C9 16.5523 9.44771 17 10 17H14L14.1166 16.9933C14.614 16.9355 15 16.5128 15 16Z" fill="black"/>
</svg>

<svg xmlns="http://www.w3.org/2000/svg" width="24" height="24" fill="none" viewBox="0 0 24 24"><path fill="currentColor" fill-rule="evenodd" d="M6 0h12a1 1 0 0 1 1 1v4h4a1 1 0 0 1 1 1v17a1 1 0 0 1-1 1H1a1 1 0 0 1-1-1V6a1 1 0 0 1 1-1h4V1a1 1 0 0 1 1-1m13 22V7h3v15zM17 2v20H7V2zM5 7v15H2V7zm10-1a1 1 0 0 0-1-1h-4l-.117.007A1 1 0 0 0 10 7h4l.117-.007A1 1 0 0 0 15 6m-1 4a1 1 0 0 1 .117 1.993L14 12h-4a1 1 0 0 1-.117-1.993L10 10zm1 6a1 1 0 0 0-1-1h-4l-.117.007A1 1 0 0 0 10 17h4l.117-.007A1 1 0 0 0 15 16" clip-rule="evenodd"/></svg>
